optimized/24/outline/select.svg

<svg viewBox="0 0 24 24" xmlns="http://www.w3.org/2000/svg" fill="currentColor" data-slot="icon">
  <g clip-path="url(#clip0_2117_12128)">
    <path d="M9.04031 10C8.62106 10 8.38797 10.485 8.64988 10.8123L11.6096 14.512C11.8097 14.7622 12.1903 14.7622 12.3904 14.512L15.3501 10.8123C15.612 10.485 15.3789 10 14.9597 10H9.04031Z"/>
    <path d="M3 6C3 4.34315 4.34315 3 6 3H18C19.6569 3 21 4.34315 21 6V18C21 19.6569 19.6569 21 18 21H6C4.34315 21 3 19.6569 3 18V6ZM6 4.5C5.17157 4.5 4.5 5.17157 4.5 6V18C4.5 18.8284 5.17157 19.5 6 19.5H18C18.8284 19.5 19.5 18.8284 19.5 18V6C19.5 5.17157 18.8284 4.5 18 4.5H6Z"/>
  </g>
  <defs>
    <clipPath id="clip0_2117_12128">
      <rect width="24" height="24"/>
    </clipPath>
  </defs>
</svg>

<svg xmlns="http://www.w3.org/2000/svg" viewBox="0 0 24 24" fill="currentColor" data-slot="icon">
  <g clip-path="url(#a)">
    <path d="M9.04 10a.5.5 0 0 0-.39.812l2.96 3.7c.2.25.58.25.78 0l2.96-3.7a.5.5 0 0 0-.39-.812H9.04Z"/>
    <path d="M3 6a3 3 0 0 1 3-3h12a3 3 0 0 1 3 3v12a3 3 0 0 1-3 3H6a3 3 0 0 1-3-3V6Zm3-1.5A1.5 1.5 0 0 0 4.5 6v12A1.5 1.5 0 0 0 6 19.5h12a1.5 1.5 0 0 0 1.5-1.5V6A1.5 1.5 0 0 0 18 4.5H6Z"/>
  </g>
  <defs>
    <clipPath id="a">
      <rect width="24" height="24"/>
    </clipPath>
  </defs>
</svg>
